X:1
T:Preambulum 11. et 12. Toni
T:Preambulum 11. et 12. Toni
T:from Harmonia organica, 1645
T:Erasmus Kindermann (1616-1655)
C:Erasmus Kindermann (1616-1655)
%%score { ( 1 2 ) | ( 3 4 ) }
L:1/8
Q:1/4=80
M:4/4
K:C
V:1 treble nm="Pipe Organ" snm="Org."
V:2 treble 
V:3 bass 
V:4 bass 
V:1
 G3 A GcBA | GA/B/ c2- cB e2- | ede^f g=fef | d2 d2- dc/B/ c2- | cdBc A4 | G8 | G4 A4- | %7
 A2 G2 c4- | c2 B4 A2- | A2 ^G2 A2 e2- | ed/c/ Bd cABc | decd B/G/A/B/ c/d/e/^f/ | ge=fg a4 | %13
 de/f/ gf/e/ d2 e2 | B/c/d/c/ d/c/B/A/ Bc/B/ c/B/A/B/ | !fermata![CEGc]16 |] %16
V:2
 E3 F E2 F2 | E3 ^F G2 G2 | cB c2 B2 c2- | cB/A/ BA G3 A | ^F2 G2- G=F/E/ F2- | F2 E2 D4 | E6 D2 | %7
 E6 ^F2 | G6 E2 | E4 E4 |[I:staff +1] E4 E4 | D4 D4 | x8 | x4[I:staff -1] G2 G2 | x8 | x16 |] %16
V:3
 C4 C4 | C4 G,3 E, | A,4 G,4 | G3 F E3 C | D4 D3 C | B,2 C4 B,2 | C3 B, A,3 B, | C2 B,2 z2 DE | %8
 E2 D4 C2 | B,4 C4 | B,4 C4 | A,4 B,4 | E2 D2 CA,DC | B,2 ED/C/ B,C/D/ CD/E/ | %14
 D2 C2 DE/D/ E/D/C/D/ | !fermata!G,16 |] %16
V:4
 x8 | x8 | x8 | x8 | z8 | G,8 | z2 C,2 F,4 | E,4 A,4 | G,4 E,4- | E,4 A,4 | ^G,4 A,4 | ^F,4 G,4 | %12
 E,4 F,4 | G,4 G,4 | G,8 | C,8 C,,8 |] %16

